X: 4396
M: 2/4
L: 1/16
K: D
|:\
e2(3(ded) B2^g2 | a2c2 e4 | d2B2 e4 | c2A2 e4 |\
e2(3(ded) B2^g2 | a2A2c2f2 | e2E2^G2B2 | c2[a2c2][a2c2] "_D.C."z2 :|


